X: 10
T:Morgan Magan
R:Other
C:Turlough O'Carolan
O:Ireland
M:2/4
L:1/8
Q:1/8=400
K:G
D2|
D2G2 G2A2|cBAG Bcd2|e2A2 A2G2|GFED D2EF|
G4 GFGA|G2FE D2G2|FGA2 A2EG|F2D2 D2EF|
G2GG AGAF|G6 dc||
B2d2 d2ef|g2G2 Bcd2|g2G2 Bcd2|edcB A3c|
BABc d2B2|e2c2 d2B2|c2A2 d3G|F2D2 D2GF|
E2C2 C3D|E2C2 C3E|F2D2 D2AG|FGEF D2Bc|
d2d2 edcB|cBAG FGAF|D2G2 AGAF|G6||
